X: 10
M:2/4
L:1/16
K:A
vcd|e^def edcB|Aaga e2c2|d2fe dcBA|GABG E2cd|
e^def edcB|Aaga e2c2|dfed cBAG|A2A2A2H::


